artwork/resources/intui/icons/shell/filetree/instant-apps.svg

<svg width="16" height="16" viewBox="0 0 16 16" fill="none" xmlns="http://www.w3.org/2000/svg">
<g clip-path="url(#clip0_3_847)">
<path fill-rule="evenodd" clip-rule="evenodd" d="M11.712 7.74659L9.43042 10.6148H11.6211V12.6939L13.4477 10.0148H11.712V7.74659ZM11.6424 6.22767C11.996 5.78315 12.712 6.03319 12.712 6.60118V9.01483H14.2046C14.6866 9.01483 14.9719 9.55455 14.7003 9.95284L11.7168 14.3287C11.3842 14.8165 10.6211 14.5811 10.6211 13.9907V11.6148H8.60112C8.0988 11.6148 7.81885 11.0344 8.13156 10.6413L11.6424 6.22767Z" fill="#F2C55C"/>
<path fill-rule="evenodd" clip-rule="evenodd" d="M7.80265 4.71673L8.09379 5H8.5H13C13.5523 5 14 5.44772 14 6V8H15V6C15 4.89543 14.1046 4 13 4L8.5 4L6.73559 2.28327C6.5489 2.10163 6.29871 2 6.03823 2H2.75C1.7835 2 1 2.83574 1 3.86667V12.1333C1 13.1643 1.7835 14 2.75 14H9.5V13H2.75C2.3956 13 2 12.6738 2 12.1333V3.86667C2 3.32624 2.3956 3 2.75 3H6.03823L7.80265 4.71673Z" fill="#6C707E"/>
</g>
<defs>
<clipPath id="clip0_3_847">
<rect width="16" height="16" fill="white"/>
</clipPath>
</defs>
</svg>

<svg width="16" height="16" viewBox="0 0 16 16" fill="none" xmlns="http://www.w3.org/2000/svg"><g clip-path="url(#clip0_3_847)" fill-rule="evenodd" clip-rule="evenodd"><path d="M11.712 7.747L9.43 10.615h2.191v2.079l1.827-2.68h-1.736V7.748zm-.07-1.52a.6.6 0 0 1 1.07.374v2.414h1.493a.6.6 0 0 1 .495.938l-2.983 4.376c-.333.487-1.096.252-1.096-.338v-2.376h-2.02a.6.6 0 0 1-.47-.974l3.511-4.413z" fill="#F2C55C"/><path d="M7.803 4.717l.29.283H13a1 1 0 0 1 1 1v2h1V6a2 2 0 0 0-2-2H8.5L6.736 2.283A1 1 0 0 0 6.038 2H2.75C1.784 2 1 2.836 1 3.867v8.266C1 13.164 1.784 14 2.75 14H9.5v-1H2.75c-.354 0-.75-.326-.75-.867V3.867c0-.54.396-.867.75-.867h3.288l1.765 1.717z" fill="#6C707E"/></g><defs><clipPath id="clip0_3_847"><path fill="#fff" d="M0 0h16v16H0z"/></clipPath></defs></svg>
